_inc/systems/logos/auto-racedriving.svg

<?xml version="1.0" encoding="utf-8"?>
<svg viewBox="0 0 200 40" xmlns="http://www.w3.org/2000/svg">
  <path d="M 48.057 29.944 C 46.527 29.757 45.045 29.21 43.766 28.367 C 41.784 27.057 40.34 25.142 39.664 22.917 C 39.502 22.399 39.345 21.615 39.286 21.088 C 39.234 20.598 39.234 19.403 39.286 18.915 C 39.711 14.954 42.532 11.569 46.382 10.413 C 46.902 10.252 47.692 10.096 48.223 10.038 C 48.714 9.987 49.918 9.987 50.409 10.038 C 52.739 10.284 54.898 11.335 56.559 13.03 C 57.696 14.2 58.502 15.55 58.971 17.085 C 59.262 18.035 59.386 18.915 59.386 20.002 C 59.386 20.817 59.348 21.266 59.206 21.975 C 58.493 25.569 55.796 28.523 52.251 29.589 C 51.732 29.749 50.941 29.906 50.409 29.964 C 49.895 30.02 48.566 30.007 48.057 29.944 Z M 47.743 25.58 C 47.743 23.432 47.736 23.369 47.48 22.877 C 47.284 22.501 46.799 22.021 46.42 21.826 C 45.914 21.565 45.902 21.565 43.719 21.565 L 41.76 21.565 L 41.787 21.713 C 41.835 21.981 42.145 22.869 42.322 23.244 C 42.709 24.06 43.2 24.753 43.865 25.417 C 44.707 26.248 45.65 26.846 46.741 27.226 C 47.09 27.35 47.602 27.495 47.695 27.5 C 47.732 27.503 47.743 27.093 47.743 25.58 Z M 51.696 27.288 C 52.905 26.897 53.868 26.308 54.768 25.417 C 55.434 24.753 55.925 24.06 56.311 23.244 C 56.488 22.869 56.798 21.981 56.846 21.713 L 56.873 21.565 L 54.933 21.565 C 52.771 21.565 52.759 21.565 52.251 21.83 C 51.87 22.024 51.355 22.537 51.158 22.917 C 50.891 23.42 50.891 23.432 50.891 25.58 L 50.891 27.507 L 51.039 27.479 C 51.118 27.467 51.417 27.377 51.696 27.288 Z M 49.867 21.744 C 50.439 21.568 50.925 21.068 51.091 20.489 C 51.161 20.24 51.161 19.762 51.091 19.513 C 50.921 18.915 50.409 18.408 49.809 18.239 C 49.556 18.169 49.077 18.169 48.825 18.239 C 48.223 18.408 47.712 18.915 47.542 19.513 C 47.511 19.622 47.487 19.842 47.487 20.002 C 47.487 20.162 47.511 20.384 47.542 20.489 C 47.673 20.935 48.011 21.366 48.415 21.592 C 48.601 21.693 48.719 21.731 49.061 21.815 C 49.191 21.846 49.679 21.802 49.867 21.744 Z M 43.141 18.672 C 43.664 18.595 44.388 18.435 44.852 18.29 C 45.246 18.165 45.564 18.035 46.386 17.665 C 47.822 17.023 48.176 16.934 49.317 16.934 C 50.368 16.934 50.835 17.035 51.87 17.489 C 52.141 17.607 52.577 17.798 52.841 17.912 C 53.97 18.404 55.201 18.693 56.507 18.774 L 56.947 18.802 L 56.925 18.669 C 56.716 17.505 56.188 16.313 55.445 15.34 C 55.134 14.93 54.423 14.222 54.009 13.914 C 52.895 13.078 51.598 12.554 50.221 12.383 C 49.793 12.331 48.84 12.331 48.412 12.383 C 47.035 12.554 45.737 13.078 44.623 13.914 C 44.211 14.222 43.5 14.93 43.188 15.34 C 42.445 16.313 41.918 17.505 41.709 18.669 L 41.686 18.802 L 42.145 18.774 C 42.402 18.759 42.85 18.713 43.141 18.672 Z" style="fill: rgb(204, 204, 204);"/>
  <path d="M 77.014 22.927 L 79.003 29.151 L 72.705 29.151 L 71.319 23.586 L 70.084 23.586 L 69.119 29.151 L 63.394 29.151 L 66.708 10.449 L 75.748 10.449 L 75.748 10.449 C 79.183 10.449 80.901 11.975 80.901 15.027 L 80.901 15.027 L 80.901 15.027 C 80.901 16.284 80.71 17.481 80.329 18.618 L 80.329 18.618 L 80.329 18.618 C 79.625 20.772 78.521 22.209 77.014 22.927 L 77.014 22.927 Z M 72.705 15.237 L 71.56 15.237 L 70.897 18.977 L 72.223 18.977 L 72.223 18.977 C 72.906 18.977 73.421 18.904 73.77 18.758 L 73.77 18.758 L 73.77 18.758 C 74.124 18.605 74.365 18.176 74.493 17.471 L 74.493 17.471 L 74.493 17.471 C 74.626 16.76 74.694 16.324 74.694 16.164 L 74.694 16.164 L 74.694 16.164 C 74.694 15.765 74.54 15.509 74.232 15.397 L 74.232 15.397 L 74.232 15.397 C 73.917 15.289 73.408 15.237 72.705 15.237 L 72.705 15.237 Z M 86.898 26.189 L 85.722 29.151 L 79.696 29.151 L 87.62 10.449 L 96.48 10.449 L 97.806 29.151 L 91.749 29.151 L 91.628 26.189 L 86.898 26.189 Z M 91.176 16.195 L 90.875 16.195 L 88.766 21.431 L 91.176 21.431 L 91.176 16.195 Z M 112.751 23.795 L 112.751 23.795 L 112.269 28.822 L 112.269 28.822 C 110.983 29.341 109.356 29.6 107.388 29.6 L 107.388 29.6 L 107.388 29.6 C 104.857 29.6 103.042 29.111 101.944 28.133 L 101.944 28.133 L 101.944 28.133 C 100.852 27.156 100.306 25.65 100.306 23.616 L 100.306 23.616 L 100.306 23.616 C 100.306 22.757 100.447 21.491 100.728 19.815 L 100.728 19.815 L 100.728 19.815 C 101.331 16.384 102.369 13.89 103.842 12.334 L 103.842 12.334 L 103.842 12.334 C 105.321 10.778 107.659 10 110.853 10 L 110.853 10 L 110.853 10 C 111.596 10 112.447 10.077 113.404 10.23 L 113.404 10.23 L 113.404 10.23 C 114.355 10.376 115.052 10.559 115.493 10.778 L 115.493 10.778 L 113.806 15.356 L 113.806 15.356 C 112.621 15.077 111.513 14.937 110.481 14.937 L 110.481 14.937 L 110.481 14.937 C 109.444 14.937 108.704 15.037 108.261 15.237 L 108.261 15.237 L 108.261 15.237 C 107.82 15.436 107.548 15.835 107.448 16.434 L 107.448 16.434 L 106.062 24.274 L 106.062 24.274 C 106.785 24.433 107.528 24.513 108.292 24.513 L 108.292 24.513 L 108.292 24.513 C 109.919 24.513 111.406 24.274 112.751 23.795 Z M 120.345 29.151 L 114.62 29.151 L 117.934 10.449 L 123.66 10.449 L 120.345 29.151 Z M 139.811 29.151 L 134.417 29.151 L 131.343 22.508 L 131.343 22.508 C 131.263 22.368 131.223 22.172 131.223 21.92 L 131.223 21.92 L 131.223 21.92 C 131.223 21.673 131.243 21.391 131.283 21.072 L 131.283 21.072 L 131.042 21.072 L 129.626 29.151 L 123.9 29.151 L 127.215 10.449 L 132.609 10.449 L 135.683 17.092 L 135.683 17.092 C 135.743 17.232 135.773 17.428 135.773 17.68 L 135.773 17.68 L 135.773 17.68 C 135.773 17.927 135.753 18.209 135.713 18.528 L 135.713 18.528 L 135.953 18.528 L 137.4 10.449 L 143.125 10.449 L 139.811 29.151 Z M 153.882 23.645 L 153.882 23.645 L 154.033 22.837 L 152.587 22.837 L 153.4 18.259 L 160.301 18.259 L 158.523 28.254 L 158.523 28.254 C 156.072 29.151 153.611 29.6 151.14 29.6 L 151.14 29.6 L 151.14 29.6 C 148.67 29.6 146.885 29.111 145.787 28.133 L 145.787 28.133 L 145.787 28.133 C 144.695 27.156 144.15 25.65 144.15 23.616 L 144.15 23.616 L 144.15 23.616 C 144.15 22.757 144.29 21.491 144.572 19.815 L 144.572 19.815 L 144.572 19.815 C 145.174 16.344 146.239 13.84 147.766 12.304 L 147.766 12.304 L 147.766 12.304 C 149.292 10.768 151.823 10 155.359 10 L 155.359 10 L 155.359 10 C 156.102 10 157.05 10.08 158.202 10.239 L 158.202 10.239 L 158.202 10.239 C 159.36 10.399 160.21 10.579 160.753 10.778 L 160.753 10.778 L 159.096 15.356 L 159.096 15.356 C 157.589 15.077 156.206 14.937 154.947 14.937 L 154.947 14.937 L 154.947 14.937 C 153.695 14.937 152.798 15.037 152.255 15.237 L 152.255 15.237 L 152.255 15.237 C 151.713 15.436 151.391 15.835 151.291 16.434 L 151.291 16.434 L 149.815 24.902 L 151.713 24.902 L 151.713 24.902 C 152.396 24.902 152.901 24.829 153.23 24.682 L 153.23 24.682 L 153.23 24.682 C 153.564 24.53 153.782 24.184 153.882 23.645 Z" style="white-space: pre; fill: rgb(255, 255, 255);"/>
</svg>

<svg xmlns="http://www.w3.org/2000/svg" viewBox="0 0 200 40"><path d="M48.06 29.94a10.05 10.05 0 0 1-8.77-11.03 10.06 10.06 0 0 1 11.12-8.87 10.07 10.07 0 0 1 8.8 11.94 10.05 10.05 0 0 1-11.15 7.96m-.32-4.36c0-2.15 0-2.21-.26-2.7-.2-.38-.68-.86-1.06-1.05-.5-.26-.52-.26-2.7-.26h-1.96l.03.14a7.6 7.6 0 0 0 2.08 3.7 7.6 7.6 0 0 0 3.83 2.09c.03 0 .04-.4.04-1.92m3.96 1.7a7.4 7.4 0 0 0 3.07-1.86 7.5 7.5 0 0 0 2.08-3.7l.02-.15h-1.94c-2.16 0-2.17 0-2.68.26-.38.2-.9.7-1.1 1.09-.26.5-.26.51-.26 2.66v1.93l.15-.03c.08-.01.38-.1.66-.2m-1.83-5.54a1.9 1.9 0 0 0 1.22-1.25 2 2 0 0 0 0-.98 1.9 1.9 0 0 0-1.28-1.27 2 2 0 0 0-.98 0 1.9 1.9 0 0 0-1.29 1.27 2 2 0 0 0 0 .98 1.9 1.9 0 0 0 1.52 1.33c.13.03.62-.02.8-.08m-6.73-3.07a14 14 0 0 0 1.71-.38c.4-.12.71-.25 1.54-.62 1.43-.65 1.79-.74 2.93-.74 1.05 0 1.52.1 2.55.56l.97.42q1.7.75 3.67.86l.44.03-.03-.13A8 8 0 0 0 54 13.91a8 8 0 0 0-5.6-1.53 8 8 0 0 0-5.22 2.96 8 8 0 0 0-1.48 3.33l-.02.13.46-.03c.25-.01.7-.06 1-.1" style="fill:#ccc"/><path d="m77.01 22.93 2 6.22h-6.3l-1.4-5.56h-1.23l-.96 5.56h-5.73l3.32-18.7h9.04q5.15 0 5.15 4.58 0 1.88-.57 3.59-1.05 3.23-3.32 4.3m-4.3-7.7h-1.15l-.66 3.75h1.32q1.03 0 1.55-.22.53-.23.72-1.29.2-1.07.2-1.3 0-.6-.46-.77-.47-.16-1.53-.16M86.9 26.2l-1.18 2.96H79.7l7.92-18.7h8.86l1.33 18.7h-6.06l-.12-2.96zm4.28-10h-.3l-2.11 5.24h2.4zm21.57 7.6-.48 5.03q-1.93.78-4.88.78-3.8 0-5.45-1.47-1.63-1.46-1.63-4.51 0-1.3.42-3.8.9-5.16 3.11-7.49 2.22-2.33 7.01-2.33 1.12 0 2.55.23a8 8 0 0 1 2.1.55l-1.7 4.58q-1.77-.42-3.32-.42-1.56 0-2.22.3t-.81 1.2l-1.39 7.83q1.08.24 2.23.24 2.45 0 4.46-.71m7.6 5.36h-5.73l3.31-18.7h5.73zm19.46 0h-5.4l-3.07-6.64a1 1 0 0 1-.12-.59q0-.37.06-.85h-.24l-1.41 8.08h-5.73l3.31-18.7h5.4l3.07 6.64q.1.21.1.59 0 .37-.07.85h.24l1.45-8.08h5.72zm14.07-5.5.15-.81h-1.44l.81-4.58h6.9l-1.78 10q-3.67 1.35-7.38 1.34-3.7 0-5.35-1.47-1.65-1.46-1.64-4.51 0-1.3.42-3.8.9-5.21 3.2-7.52 2.28-2.3 7.59-2.3 1.11 0 2.84.24 1.74.24 2.55.54l-1.65 4.58q-2.27-.42-4.15-.42-1.87 0-2.7.3-.81.3-.96 1.2l-1.47 8.46h1.9q1.02 0 1.51-.22.5-.23.65-1.04" style="white-space:pre;fill:#fff"/></svg>
